X: 1
T: Lonely Accordion  [Em]
T: Odinokaya Garmon'
C: M.Isakovsky
N: Words by B.Mokrousov
O: Russia
M: 3/4
L: 1/4
K: Em
|: "Em"EG | BGE | "B7"^DFA | "Em"cB2- \
| BEF | "C"GEC | "B7"B,^DF | "Em"G3- | GAB |
| "C"ccG | "D7"FFA | "G"BB2- | "C"BEG \
| "Am"AAG | "B7"FEF | "Em"G3- | GAB |
| "Am"ccG | "D7"ddc | "G"BB2- | "C"BEB \
| "Am"AAG | "B7"FE^D | "Em"E3- | E |]
